assets/img/icons/blood.svg

<svg width="25" height="25" viewBox="0 0 25 25" fill="none" xmlns="http://www.w3.org/2000/svg">
<g clip-path="url(#clip0_364_899)">
<path d="M17.029 15.3366L8.89151 23.4741C7.90818 24.4574 6.60089 24.9991 5.20922 24.9991C3.81755 24.9991 2.51026 24.4574 1.52693 23.4741C-0.50328 21.4429 -0.50328 18.1387 1.52693 16.1085L9.66443 7.97098L17.0301 15.3366H17.029ZM15.3759 0.0407715L13.903 1.51369L15.0113 2.62202L11.1363 6.49702L18.5019 13.8626L22.378 9.9866L23.4863 11.0949L24.9592 9.62202L15.3759 0.0407715ZM23.779 23.7793C24.5665 22.9929 24.9998 21.946 24.9998 20.8335C24.9998 19.721 24.5665 18.6741 23.7707 17.8793L20.8332 15.0054L17.8873 17.8876C17.0998 18.6741 16.6665 19.721 16.6665 20.8335C16.6665 21.946 17.0998 22.9929 17.8873 23.7793C18.6748 24.5668 19.7207 25.0001 20.8332 25.0001C21.9457 25.0001 22.9915 24.5668 23.779 23.7793Z" fill="#BF1F1F"/>
</g>
<defs>
<clipPath id="clip0_364_899">
<rect width="25" height="25" fill="white"/>
</clipPath>
</defs>
</svg>

<svg width="25" height="25" fill="none" xmlns="http://www.w3.org/2000/svg"><g clip-path="url(#a)"><path d="m17.029 15.337-8.137 8.137A5.173 5.173 0 0 1 5.209 25a5.173 5.173 0 0 1-3.682-1.525 5.215 5.215 0 0 1 0-7.366l8.137-8.137 7.366 7.366h-.001ZM15.376.04l-1.473 1.473 1.108 1.108-3.875 3.875 7.366 7.366 3.876-3.876 1.108 1.108 1.473-1.473-9.583-9.58Zm8.403 23.738a4.136 4.136 0 0 0 1.22-2.945c0-1.113-.432-2.16-1.228-2.955l-2.938-2.874-2.946 2.883a4.137 4.137 0 0 0-1.22 2.945c0 1.113.433 2.16 1.22 2.946A4.138 4.138 0 0 0 20.833 25a4.138 4.138 0 0 0 2.946-1.22Z" fill="#BF1F1F"/></g><defs><clipPath id="a"><path fill="#fff" d="M0 0h25v25H0z"/></clipPath></defs></svg>
